X:196
T:Reel 196
M:4/4
K:Dmaj
L:1/8
FE|DCDE FEFA|BcdB AFFD|EFEd B2AF|EDED EDB,E|DEDE FEFA|Bcec BcAc|dcdB ABdB|AFEF E2|AG|FDDA FDDA|GEFE EDB,D|EDED EFGA|Beed ceAG|FDDA FDDA|GEFD EDB,D|EDFA dAFD|GEFD EDB,D|
